(tempo! 128)
clarinet: 
	V1: 
		r1
		%INTRO
		o4 
		[
			{b-*3 > c+}2. c+8*2 <
		]*12
		%VERSE
		[
			{b-*3 > c+}2. c+8*2 <
		]*8
	V2:
		@INTRO
		o5
		[
			{f+*4}2. f+8*2
		]*20

	V3: 
		@VERSE
		o4 
		[
			{e-*3 < b/>f+}2. [<b8/>f+]*2  {f+*3 g+}2. g+8*2
		]*4