#!/usr/bin/env -S alda play -f
(tempo! 111)
midi-electric-bass-finger:
    V1:
        o3
        [
            b-2.~b-8 > e-2 e-2~e-8 | < a-2.~a-8 > d-2~d-8 d-8 r c r <
        ]*2
    V2:
        o5
        [
            d-8 a- d- a- d- a- d- a-4. d-8 a- d- g d- g | c g c g c g c f | c f c f f/a-/>c r <e-/g/b- r
        ]*2
