(tempo! 80)
(quant! 95)
piano:
	V1: o4 [
		# Beginnings
		[r2 g4 a]'1-3
		[r4 > c < a g]'4
		# Middle to end
		[ | (quant 60) e2. (quant 95) c8 d | < b2. > g8 e | d1 ]'1,2,4
		[ | (quant 60) >c2. (quant 95) e8 d | < b2. > c8 < b | g1 ]'3
		]*4
		%CHORUS
		[
		# Beginnings
		[r2.]'1 
		[c2.]'2
		a8 g | d2 d4 c | <b2. >c8 d | <a1 >
		]*2
	V2: o5 @CHORUS [r1]*4 | c2. r4 | r2. d4 | < g1 | f1/e1
	V3: o3 [| d2 e | f a | g f | c1]*4
		[ | <a | >d | <g | f ]*2